assets/flags/mk.svg

<svg viewBox="0 0 56 28" xmlns="http://www.w3.org/2000/svg"><path d="m0 0h56v28h-56z" fill="#d20000"/><g fill="#ffe600"><path d="m0 0h8.4l19.6 13.5 19.6-13.5h8.4l-56 28h8.4l19.6-13.5 19.6 13.5h8.4zm56 11.2v5.6l-56-5.6v5.6zm-30.8-11.2 2.8 12 2.8-12zm0 28 2.8-12 2.8 12z"/><circle cx="28" cy="14" r="4.5" stroke="#d20000"/></g></svg>

<svg xmlns="http://www.w3.org/2000/svg" viewBox="0 0 56 28">
<rect width="56" height="28" fill="#d20000"/>
<g fill="#ffe600">
<path d="M 0,0 8.4,0 28,13.5 47.6,0 56,0 0,28 8.4,28 28,14.5 47.6,28 56,28 z M 56,11.2 56,16.8 0,11.2 0,11.2 0,16.8 z M 25.2,0 28,12 30.8,0 z M 25.2,28 28,16 30.8,28 z"/>
<circle cx="28" cy="14" r="4.5" stroke="#d20000"/>
</g>
</svg>
